bundles/org.openhab.ui.iconset.classic/src/main/resources/icons/qualityofservice-2.svg

<?xml version="1.0" encoding="UTF-8"?>
<svg enable-background="new 0 0 64 64" viewBox="0 0 64 64" xmlns="http://www.w3.org/2000/svg">
 <path d="m6.5 44.5h9v11h-9z" fill="#323232"/>
 <path d="m15 45v10h-8v-10h8m1-1h-10v12h10v-12z"/>
 <path d="m20.5 32.5h9v23h-9z" fill="#323232"/>
 <path d="m29 33v22h-8v-22h8m1-1h-10v24h10v-24z"/>
 <g fill="#dae1e4">
  <path d="m34 24h10v32h-10z"/>
  <path d="m48 8h10v48h-10z"/>
 </g>
</svg>

<svg viewBox="0 0 64 64" xmlns="http://www.w3.org/2000/svg"><path d="M6.5 44.5h9v11h-9z" fill="#323232"/><path d="M15 45v10H7V45h8m1-1H6v12h10V44z"/><path d="M20.5 32.5h9v23h-9z" fill="#323232"/><path d="M29 33v22h-8V33h8m1-1H20v24h10V32z"/><g fill="#dae1e4"><path d="M34 24h10v32H34zM48 8h10v48H48z"/></g></svg>
